X: 42581
T: When Your Head Hurts
R: jig
M: 6/8
K: Amixolydian
|:c2 A dcd|ede gfg|a2 f gef|fde BGB|
c2 A dcd|ede gfg|afg efd|ecd dcA:|
|:G2 D GAB|AcA dcA|G2 D GAB|Acc Add|
G2 D GAB|AcA dcA|GDG AdG|A3 z3:|

